X:2020
T:Svingedans
T:(FMK M 143a bild 18)
T:efter N A Persson
R:Svingedans
O:S:t Olof, Skåne
B:Folkmusikkommissionen
Z:ABC-transkribering av Åke Persson
M:3/4
L:1/8
Q:1/4=108
K:A
|: AA d2 c>e | ed f2 d2 | fffe(ce) | dBBA(FA) | 
FA d2 c>e | ed f2 d2 | fffe(ce) |1 dB A4 :|2 dB A3 =g |]
[K:D] |: fg a2 e>a | fa f2 d2 | AA f2 a>g |1 ec d3 g :|2 ec d4 |]
(:musicend:)

(:music:)
